assets/icons/ubuntu-logo/simple.svg

<?xml version="1.0" encoding="UTF-8" standalone="no"?>
<svg
   viewBox="0 0 24 24"
   height="24"
   id="svg7384"
   version="1.1"
   width="24"
   sodipodi:docname="simple.svg"
   inkscape:version="1.2 (1:1.2.1+202207142221+cd75a1ee6d)"
   xmlns:inkscape="http://www.inkscape.org/namespaces/inkscape"
   xmlns:sodipodi="http://sodipodi.sourceforge.net/DTD/sodipodi-0.dtd"
   xmlns="http://www.w3.org/2000/svg"
   xmlns:svg="http://www.w3.org/2000/svg"
   xmlns:rdf="http://www.w3.org/1999/02/22-rdf-syntax-ns#"
   xmlns:cc="http://creativecommons.org/ns#"
   xmlns:dc="http://purl.org/dc/elements/1.1/">
  <sodipodi:namedview
     pagecolor="#ffffff"
     bordercolor="#666666"
     borderopacity="1"
     objecttolerance="10"
     gridtolerance="10"
     guidetolerance="10"
     inkscape:pageopacity="0"
     inkscape:pageshadow="2"
     inkscape:window-width="1920"
     inkscape:window-height="1016"
     id="namedview21"
     showgrid="true"
     inkscape:zoom="21.566754"
     inkscape:cx="5.517752"
     inkscape:cy="12.449718"
     inkscape:window-x="0"
     inkscape:window-y="0"
     inkscape:window-maximized="1"
     inkscape:current-layer="svg7384"
     inkscape:pagecheckerboard="0"
     width="24px"
     inkscape:showpageshadow="2"
     inkscape:deskcolor="#d1d1d1">
    <inkscape:grid
       type="xygrid"
       id="grid846"
       originx="0"
       originy="0" />
  </sodipodi:namedview>
  <metadata
     id="metadata20854">
    <rdf:RDF>
      <cc:Work
         rdf:about="">
        <dc:format>image/svg+xml</dc:format>
        <dc:type
           rdf:resource="http://purl.org/dc/dcmitype/StillImage" />
      </cc:Work>
    </rdf:RDF>
  </metadata>
  <defs
     id="defs7386">
    <linearGradient
       id="linearGradient5606"
       inkscape:swatch="solid">
      <stop
         id="stop5608"
         offset="0"
         style="stop-color:#000000;stop-opacity:1;" />
    </linearGradient>
    <linearGradient
       id="linearGradient4526"
       inkscape:swatch="solid">
      <stop
         id="stop4528"
         offset="0"
         style="stop-color:#ffffff;stop-opacity:1;" />
    </linearGradient>
    <linearGradient
       id="linearGradient3600-4"
       inkscape:swatch="gradient">
      <stop
         id="stop3602-7"
         offset="0"
         style="stop-color:#f4f4f4;stop-opacity:1" />
      <stop
         id="stop3604-6"
         offset="1"
         style="stop-color:#dbdbdb;stop-opacity:1" />
    </linearGradient>
  </defs>
  <path
     id="path666"
     style="fill:#808080;stroke-width:1"
     d="M 15.984375 3.5078125 A 2.6171875 2.6171875 0 0 0 13.367188 6.125 A 2.6171875 2.6171875 0 0 0 15.984375 8.7421875 A 2.6171875 2.6171875 0 0 0 18.601562 6.125 A 2.6171875 2.6171875 0 0 0 15.984375 3.5078125 z M 12.1875 3.78125 A 8.59375 8.59375 0 0 0 4.890625 8.09375 L 5.0859375 8.09375 A 3.6328125 3.6328125 0 0 1 5.8671875 8.171875 A 3.78125 3.78125 0 0 1 7.0527344 8.6640625 A 6.34375 6.34375 0 0 1 12.195312 5.9140625 A 5.015625 5.015625 0 0 1 12.273438 5.328125 A 3.6171875 3.6171875 0 0 1 12.992188 3.8046875 A 8.59375 8.59375 0 0 0 12.1875 3.78125 z M 19.460938 7.625 A 3.7890625 3.7890625 0 0 1 17.992188 9.34375 A 6.421875 6.421875 0 0 1 18.601562 13.679688 A 6.3125 6.3125 0 0 1 17.78125 15.710938 A 3.578125 3.578125 0 0 1 19.03125 17.648438 A 8.59375 8.59375 0 0 0 19.460938 7.625 z M 5.109375 9.2421875 A 2.6171875 2.6171875 0 0 0 2.4921875 11.859375 A 2.6171875 2.6171875 0 0 0 5.109375 14.476562 A 2.6171875 2.6171875 0 0 0 7.7265625 11.859375 A 2.6171875 2.6171875 0 0 0 5.109375 9.2421875 z M 6.671875 15.257812 A 3.7734375 3.7734375 0 0 1 4.4453125 15.529297 A 8.4921875 8.4921875 0 0 0 10.578125 20.671875 A 8.59375 8.59375 0 0 0 12.429688 20.867188 A 3.6796875 3.6796875 0 0 1 11.648438 18.679688 A 2.2578125 2.2578125 0 0 1 11.007812 18.578125 A 6.3125 6.3125 0 0 1 6.671875 15.257812 z M 15.398438 15.984375 A 2.6171875 2.6171875 0 0 0 12.78125 18.601562 A 2.6171875 2.6171875 0 0 0 15.398438 21.21875 A 2.6171875 2.6171875 0 0 0 18.015625 18.601562 A 2.6171875 2.6171875 0 0 0 15.398438 15.984375 z " />
</svg>

<svg height="24" width="24" xmlns="http://www.w3.org/2000/svg"><path style="fill:gray;stroke-width:1" d="M15.984 3.508a2.617 2.617 0 0 0-2.617 2.617 2.617 2.617 0 0 0 2.617 2.617 2.617 2.617 0 0 0 2.618-2.617 2.617 2.617 0 0 0-2.618-2.617zm-3.796.273A8.594 8.594 0 0 0 4.89 8.094h.195a3.633 3.633 0 0 1 .781.078 3.781 3.781 0 0 1 1.186.492 6.344 6.344 0 0 1 5.142-2.75 5.016 5.016 0 0 1 .078-.586 3.617 3.617 0 0 1 .72-1.523 8.594 8.594 0 0 0-.806-.024zm7.273 3.844a3.79 3.79 0 0 1-1.469 1.719 6.422 6.422 0 0 1 .61 4.336 6.313 6.313 0 0 1-.82 2.03 3.578 3.578 0 0 1 1.25 1.938 8.594 8.594 0 0 0 .429-10.023zM5.109 9.242a2.617 2.617 0 0 0-2.617 2.617 2.617 2.617 0 0 0 2.617 2.618 2.617 2.617 0 0 0 2.618-2.618 2.617 2.617 0 0 0-2.618-2.617zm1.563 6.016a3.773 3.773 0 0 1-2.227.271 8.492 8.492 0 0 0 6.133 5.143 8.594 8.594 0 0 0 1.852.195 3.68 3.68 0 0 1-.782-2.187 2.258 2.258 0 0 1-.64-.102 6.313 6.313 0 0 1-4.336-3.32zm8.726.726a2.617 2.617 0 0 0-2.617 2.618 2.617 2.617 0 0 0 2.617 2.617 2.617 2.617 0 0 0 2.618-2.617 2.617 2.617 0 0 0-2.618-2.618z"/></svg>
